( PCB drills )
( Generated by Carbide Copper )
( Changed some )
( Material Size )
( X= 67.000, Y= 26.000, Z= 1.580 )
()
G17
G21
G54
G90
M03
G00  X64.719 Y7.671
G00 F750 Z0
G01 F14400 Z-1.780
G00 Z3.000
G00  X64.719 Y10.236
G00 F750 Z0
G01 F14400 Z-1.780
G00 Z3.000
G00  X64.719 Y15.291
G00 F750 Z0
G01 F14400 Z-1.780
G00 Z3.000
G00  X64.719 Y17.831
G00 F750 Z0
G01 F14400 Z-1.780
G00 Z3.000
G00  X62.154 Y20.371
G00 F750 Z0
G01 F14400 Z-1.780
G00 Z3.000
G00  X62.154 Y22.885
G00 F750 Z0
G01 F14400 Z-1.780
G00 Z3.000
G00  X59.639 Y22.885
G00 F750 Z0
G01 F14400 Z-1.780
G00 Z3.000
G00  X58.395 Y20.371
G00 F750 Z0
G01 F14400 Z-1.780
G00 Z3.000
G00  X59.639 Y17.831
G00 F750 Z0
G01 F14400 Z-1.780
G00 Z3.000
G00  X59.639 Y15.316
G00 F750 Z0
G01 F14400 Z-1.780
G00 Z3.000
G00  X57.099 Y16.561
G00 F750 Z0
G01 F14400 Z-1.780
G00 Z3.000
G00  X57.099 Y14.021
G00 F750 Z0
G01 F14400 Z-1.780
G00 Z3.000
G00  X57.099 Y11.481
G00 F750 Z0
G01 F14400 Z-1.780
G00 Z3.000
G00  X59.639 Y11.481
G00 F750 Z0
G01 F14400 Z-1.780
G00 Z3.000
G00  X59.639 Y7.671
G00 F750 Z0
G01 F14400 Z-1.780
G00 Z3.000
G00  X59.639 Y5.131
G00 F750 Z0
G01 F14400 Z-1.780
G00 Z3.000
G00  X57.099 Y5.131
G00 F750 Z0
G01 F14400 Z-1.780
G00 Z3.000
G00  X54.559 Y5.131
G00 F750 Z0
G01 F14400 Z-1.780
G00 Z3.000
G00  X54.559 Y7.671
G00 F750 Z0
G01 F14400 Z-1.780
G00 Z3.000
G00  X53.289 Y11.582
G00 F750 Z0
G01 F14400 Z-1.780
G00 Z3.000
G00  X49.454 Y12.751
G00 F750 Z0
G01 F14400 Z-1.780
G00 Z3.000
G00  X49.454 Y15.291
G00 F750 Z0
G01 F14400 Z-1.780
G00 Z3.000
G00  X49.454 Y17.831
G00 F750 Z0
G01 F14400 Z-1.780
G00 Z3.000
G00  X51.664 Y19.329
G00 F750 Z0
G01 F14400 Z-1.780
G00 Z3.000
G00  X53.162 Y21.260
G00 F750 Z0
G01 F14400 Z-1.780
G00 Z3.000
G00  X55.804 Y19.101
G00 F750 Z0
G01 F14400 Z-1.780
G00 Z3.000
G00  X49.454 Y22.885
G00 F750 Z0
G01 F14400 Z-1.780
G00 Z3.000
G00  X45.669 Y22.885
G00 F750 Z0
G01 F14400 Z-1.780
G00 Z3.000
G00  X43.104 Y22.885
G00 F750 Z0
G01 F14400 Z-1.780
G00 Z3.000
G00  X40.589 Y22.885
G00 F750 Z0
G01 F14400 Z-1.780
G00 Z3.000
G00  X38.075 Y22.885
G00 F750 Z0
G01 F14400 Z-1.780
G00 Z3.000
G00  X36.855 Y18.644
G00 F750 Z0
G01 F14400 Z-1.780
G00 Z3.000
G00  X36.043 Y16.154
G00 F750 Z0
G01 F14400 Z-1.780
G00 Z3.000
G00  X35.027 Y13.843
G00 F750 Z0
G01 F14400 Z-1.780
G00 Z3.000
G00  X32.995 Y15.291
G00 F750 Z0
G01 F14400 Z-1.780
G00 Z3.000
G00  X32.995 Y17.831
G00 F750 Z0
G01 F14400 Z-1.780
G00 Z3.000
G00  X32.995 Y20.371
G00 F750 Z0
G01 F14400 Z-1.780
G00 Z3.000
G00  X32.995 Y22.885
G00 F750 Z0
G01 F14400 Z-1.780
G00 Z3.000
G00  X30.429 Y20.371
G00 F750 Z0
G01 F14400 Z-1.780
G00 Z3.000
G00  X27.889 Y20.371
G00 F750 Z0
G01 F14400 Z-1.780
G00 Z3.000
G00  X25.375 Y20.371
G00 F750 Z0
G01 F14400 Z-1.780
G00 Z3.000
G00  X22.809 Y20.371
G00 F750 Z0
G01 F14400 Z-1.780
G00 Z3.000
G00  X20.295 Y20.371
G00 F750 Z0
G01 F14400 Z-1.780
G00 Z3.000
G00  X20.295 Y22.885
G00 F750 Z0
G01 F14400 Z-1.780
G00 Z3.000
G00  X17.729 Y20.371
G00 F750 Z0
G01 F14400 Z-1.780
G00 Z3.000
G00  X15.164 Y20.371
G00 F750 Z0
G01 F14400 Z-1.780
G00 Z3.000
G00  X12.675 Y20.371
G00 F750 Z0
G01 F14400 Z-1.780
G00 Z3.000
G00  X10.109 Y20.371
G00 F750 Z0
G01 F14400 Z-1.780
G00 Z3.000
G00  X7.569 Y20.371
G00 F750 Z0
G01 F14400 Z-1.780
G00 Z3.000
G00  X8.814 Y22.885
G00 F750 Z0
G01 F14400 Z-1.780
G00 Z3.000
G00  X5.004 Y22.885
G00 F750 Z0
G01 F14400 Z-1.780
G00 Z3.000
G00  X10.109 Y12.751
G00 F750 Z0
G01 F14400 Z-1.780
G00 Z3.000
G00  X10.109 Y10.236
G00 F750 Z0
G01 F14400 Z-1.780
G00 Z3.000
G00  X12.675 Y10.236
G00 F750 Z0
G01 F14400 Z-1.780
G00 Z3.000
G00  X12.675 Y12.751
G00 F750 Z0
G01 F14400 Z-1.780
G00 Z3.000
G00  X15.164 Y12.751
G00 F750 Z0
G01 F14400 Z-1.780
G00 Z3.000
G00  X17.729 Y12.751
G00 F750 Z0
G01 F14400 Z-1.780
G00 Z3.000
G00  X20.295 Y12.751
G00 F750 Z0
G01 F14400 Z-1.780
G00 Z3.000
G00  X20.422 Y10.312
G00 F750 Z0
G01 F14400 Z-1.780
G00 Z3.000
G00  X18.593 Y10.236
G00 F750 Z0
G01 F14400 Z-1.780
G00 Z3.000
G00  X20.295 Y7.671
G00 F750 Z0
G01 F14400 Z-1.780
G00 Z3.000
G00  X22.809 Y7.671
G00 F750 Z0
G01 F14400 Z-1.780
G00 Z3.000
G00  X22.809 Y5.131
G00 F750 Z0
G01 F14400 Z-1.780
G00 Z3.000
G00  X25.375 Y5.131
G00 F750 Z0
G01 F14400 Z-1.780
G00 Z3.000
G00  X27.889 Y5.131
G00 F750 Z0
G01 F14400 Z-1.780
G00 Z3.000
G00  X27.889 Y7.747
G00 F750 Z0
G01 F14400 Z-1.780
G00 Z3.000
G00  X27.889 Y10.236
G00 F750 Z0
G01 F14400 Z-1.780
G00 Z3.000
G00  X25.502 Y10.312
G00 F750 Z0
G01 F14400 Z-1.780
G00 Z3.000
G00  X25.375 Y12.751
G00 F750 Z0
G01 F14400 Z-1.780
G00 Z3.000
G00  X22.809 Y12.751
G00 F750 Z0
G01 F14400 Z-1.780
G00 Z3.000
G00  X30.429 Y12.751
G00 F750 Z0
G01 F14400 Z-1.780
G00 Z3.000
G00  X30.429 Y10.236
G00 F750 Z0
G01 F14400 Z-1.780
G00 Z3.000
G00  X32.995 Y11.506
G00 F750 Z0
G01 F14400 Z-1.780
G00 Z3.000
G00  X32.995 Y8.941
G00 F750 Z0
G01 F14400 Z-1.780
G00 Z3.000
G00  X40.564 Y16.104
G00 F750 Z0
G01 F14400 Z-1.780
G00 Z3.000
G00  X43.104 Y16.002
G00 F750 Z0
G01 F14400 Z-1.780
G00 Z3.000
G00  X43.028 Y18.644
G00 F750 Z0
G01 F14400 Z-1.780
G00 Z3.000
G00  X45.872 Y16.180
G00 F750 Z0
G01 F14400 Z-1.780
G00 Z3.000
G00  X45.110 Y13.894
G00 F750 Z0
G01 F14400 Z-1.780
G00 Z3.000
G00  X45.999 Y11.379
G00 F750 Z0
G01 F14400 Z-1.780
G00 Z3.000
G00  X47.803 Y7.671
G00 F750 Z0
G01 F14400 Z-1.780
G00 Z3.000
G00  X49.581 Y7.264
G00 F750 Z0
G01 F14400 Z-1.780
G00 Z3.000
G00  X49.581 Y5.232
G00 F750 Z0
G01 F14400 Z-1.780
G00 Z3.000
G00  X47.803 Y5.131
G00 F750 Z0
G01 F14400 Z-1.780
G00 Z3.000
G00  X52.070 Y2.540
G00 F750 Z0
G01 F14400 Z-1.780
G00 Z3.000
G00  X43.180 Y2.540
G00 F750 Z0
G01 F14400 Z-1.780
G00 Z3.000
G00  X64.719 Y22.885
G00 F750 Z0
G01 F14400 Z-1.780
G00 Z3.000
G00  X12.675 Y7.671
G00 F750 Z0
G01 F14400 Z-1.780
G00 Z3.000
G00  X10.109 Y2.591
G00 F750 Z0
G01 F14400 Z-1.780
G00 Z3.000
G00  X5.004 Y2.591
G00 F750 Z0
G01 F14400 Z-1.780
G00 Z3.000
G00  X5.004 Y10.236
G00 F750 Z0
G01 F14400 Z-1.780
G00 Z3.000
G00 Z3.000
M05
M30
%